icons/Design/focus-2-fill.svg

<svg xmlns="http://www.w3.org/2000/svg" viewBox="0 0 24 24">
    <g>
        <path fill="none" d="M0 0h24v24H0z"/>
        <path d="M12 2c5.52 0 10 4.48 10 10s-4.48 10-10 10S2 17.52 2 12 6.48 2 12 2zm0 18c4.427 0 8-3.573 8-8s-3.573-8-8-8a7.99 7.99 0 0 0-8 8c0 4.427 3.573 8 8 8zm0-2c-3.32 0-6-2.68-6-6s2.68-6 6-6 6 2.68 6 6-2.68 6-6 6zm0-8c-1.1 0-2 .9-2 2s.9 2 2 2 2-.9 2-2-.9-2-2-2z"/>
    </g>
</svg>

<svg viewBox="0 0 24 24" xmlns="http://www.w3.org/2000/svg"><path d="M12 2C17.52 2 22 6.48 22 12C22 17.52 17.52 22 12 22C6.48 22 2 17.52 2 12C2 6.48 6.48 2 12 2ZM12 20C16.4267 20 20 16.4267 20 12C20 7.57333 16.4267 4 12 4C7.57333 4 4 7.57333 4 12C4 16.4267 7.57333 20 12 20ZM12 18C8.68 18 6 15.32 6 12C6 8.68 8.68 6 12 6C15.32 6 18 8.68 18 12C18 15.32 15.32 18 12 18ZM12 10C10.9 10 10 10.9 10 12C10 13.1 10.9 14 12 14C13.1 14 14 13.1 14 12C14 10.9 13.1 10 12 10Z"/></svg>
